X:3153
T:Jour d'été (F.Paris)
O:england
C:F. Paris
M:2/4
L:1/16
K:C
egfd e2ce|egfd c2cG|ABc2- cdec|\
fedf ~e2ce|egfd e2ce|
egfd c2cG|ABc2- cdec|fdBd c4:|\
|:abab ~a3b|abab g4|~agf2- fede|
fedf ~e2ca|abab ~a3b|abab g4|\
~agf2- fede|fdBd c4:|


